; generated by PrusaSlicer 2.2.0+win64 on 2020-08-21 at 09:26:15 UTC

; 

; external perimeters extrusion width = 0.45mm
; perimeters extrusion width = 0.45mm
; infill extrusion width = 0.45mm
; solid infill extrusion width = 0.45mm
; top infill extrusion width = 0.40mm
; first layer extrusion width = 0.42mm

M73 P0 R125
M73 Q0 S125
M201 X1000 Y1000 Z1000 E5000 ; sets maximum accelerations, mm/sec^2
M203 X200 Y200 Z12 E120 ; sets maximum feedrates, mm/sec
M204 P1250 R1250 T1250 ; sets acceleration (P, T) and retract acceleration (R), mm/sec^2
M205 X8.00 Y8.00 Z0.40 E4.50 ; sets the jerk limits, mm/sec
M205 S0 T0 ; sets the minimum extruding and travel feed rate, mm/sec
M107
M862.3 P "MK3" ; printer model check
M862.1 P0.4 ; nozzle diameter check
M115 U3.8.1 ; tell printer latest fw version
G90 ; use absolute coordinates
M83 ; extruder relative mode
M104 S215 ; set extruder temp
M140 S60 ; set bed temp
M190 S60 ; wait for bed temp
M109 S215 ; wait for extruder temp
G28 W ; home all without mesh bed level
G80 ; mesh bed leveling
G1 Y-3.0 F1000.0 ; go outside print area
G92 E0.0
G1 X60.0 E9.0 F1000.0 ; intro line
M73 Q0 S125
M73 P0 R125
G1 X100.0 E12.5 F1000.0 ; intro line
G92 E0.0
M221 S95
G21 ; set units to millimeters
G90 ; use absolute coordinates
M83 ; use relative distances for extrusion
M900 K30 ; Filament gcode
;BEFORE_LAYER_CHANGE
G92 E0.0
;0.2


G1 E-0.80000 F2100.00000
G1 Z0.600 F10800.000
;AFTER_LAYER_CHANGE
;0.2
G1 X73.487 Y70.157
G1 Z0.200
G1 E0.80000 F2100.00000
M204 S1000
G1 F1200.000
G1 X76.967 Y66.879 E0.14990
G1 X99.234 Y49.750 E0.88084
G1 X99.877 Y49.400 E0.02296
G1 X100.669 Y49.261 E0.02520
G1 X140.981 Y49.261 E1.26395
G1 X141.664 Y49.363 E0.02166
G1 X142.293 Y49.659 E0.02178
G1 X162.098 Y63.161 E0.75156
G1 X163.414 Y64.174 E0.05207
G1 X164.661 Y65.416 E0.05519
G1 X177.200 Y81.026 E0.62779
G1 X177.554 Y81.641 E0.02225
G1 X177.713 Y82.379 E0.02367
G1 X180.483 Y136.414 E1.69647
G1 X180.484 Y148.559 E0.38078
G1 X180.404 Y149.119 E0.01775
G1 X180.192 Y149.648 E0.01787
G1 X179.842 Y150.131 E0.01870
G1 X178.575 Y151.376 E0.05568
G1 X178.004 Y151.707 E0.02071
G1 X177.363 Y151.869 E0.02071
G1 X92.417 Y160.730 E2.67789
G1 X81.017 Y160.738 E0.35742
G1 X80.457 Y160.658 E0.01775
G1 X79.928 Y160.446 E0.01787
G1 X79.476 Y160.124 E0.01740
G1 X79.111 Y159.706 E0.01740
G1 X78.852 Y159.215 E0.01740
G1 X78.715 Y158.682 E0.01728
G1 X69.528 Y84.178 E2.35369
G1 X69.540 Y79.230 E0.15515
G1 X70.784 Y74.720 E0.14669
G1 X70.984 Y74.235 E0.01645
G1 X73.456 Y70.208 E0.14814
G1 F8640.000
G1 X75.844 Y67.944 E-0.76000
G1 E-0.04000 F2100.00000
G1 Z0.800 F10800.000
G1 X87.772 Y119.488
G1 Z0.200
G1 E0.80000 F2100.00000
G1 F1200.000
G1 X88.921 Y119.259 E0.03673
G1 X90.070 Y119.488 E0.03673
G1 X91.044 Y120.139 E0.03673
G1 X91.695 Y121.113 E0.03673
G1 X91.923 Y122.262 E0.03673
G1 X91.695 Y123.411 E0.03673
G1 X91.044 Y124.385 E0.03673
G1 X90.070 Y125.036 E0.03673
G1 X88.921 Y125.264 E0.03673
G1 X87.772 Y125.036 E0.03673
G1 X86.798 Y124.385 E0.03673
G1 X86.147 Y123.411 E0.03673
G1 X85.918 Y122.262 E0.03673
G1 X86.147 Y121.113 E0.03673
G1 X86.798 Y120.139 E0.03673
G1 X87.722 Y119.521 E0.03485
G1 X87.919 Y119.843 F10800.000
G1 F1200.000
G1 X88.921 Y119.644 E0.03203
G1 X89.923 Y119.843 E0.03203
G1 X90.772 Y120.410 E0.03203
G1 X91.339 Y121.260 E0.03203
G1 X91.539 Y122.262 E0.03203
G1 X91.339 Y123.263 E0.03203
G1 X90.772 Y124.113 E0.03203
G1 X89.923 Y124.680 E0.03203
G1 X88.921 Y124.880 E0.03203
G1 X87.919 Y124.680 E0.03203
G1 X87.070 Y124.113 E0.03203
G1 X86.502 Y123.263 E0.03203
G1 X86.303 Y122.262 E0.03203
G1 X86.502 Y121.260 E0.03203
G1 X87.070 Y120.410 E0.03203
G1 X87.869 Y119.876 E0.03015
G1 X87.971 Y119.446 F10800.000
G1 F8640.000
G1 X88.921 Y119.644 E-0.24872
G1 X89.923 Y119.843 E-0.23587
G1 X90.772 Y120.410 E-0.23587
G1 X90.867 Y120.553 E-0.03954
G1 E-0.04000 F2100.00000
G1 Z0.800 F10800.000
G1 X85.398 Y114.159
G1 Z0.200
G1 E0.80000 F2100.00000
G1 F1200.000
G1 X85.604 Y113.150 E0.03231
G1 X86.411 Y113.790 E0.03231
G1 X86.740 Y112.814 E0.03231
G1 X87.463 Y113.548 E0.03231
G1 X87.907 Y112.618 E0.03231
G1 X88.535 Y113.435 E0.03231
G1 X89.090 Y112.567 E0.03231
G1 X89.614 Y113.454 E0.03231
G1 X90.270 Y112.660 E0.03231
G1 X90.682 Y113.604 E0.03231
G1 X91.430 Y112.896 E0.03231
G1 X91.724 Y113.883 E0.03231
G1 X92.553 Y113.271 E0.03231
G1 X92.724 Y114.287 E0.03231
G1 X93.622 Y113.781 E0.03231
G1 X93.668 Y114.810 E0.03231
G1 X94.620 Y114.417 E0.03231
G1 X94.540 Y115.444 E0.03231
G1 X95.534 Y115.170 E0.03231
G1 X95.329 Y116.180 E0.03231
G1 X96.349 Y116.029 E0.03231
G1 X96.023 Y117.006 E0.03231
G1 X97.053 Y116.981 E0.03231
G1 X96.610 Y117.911 E0.03231
G1 X97.636 Y118.011 E0.03231
G1 X97.083 Y118.881 E0.03231
G1 X98.089 Y119.105 E0.03231
G1 X97.434 Y119.901 E0.03231
G1 X98.405 Y120.246 E0.03231
G1 X97.659 Y120.956 E0.03231
G1 X98.580 Y121.417 E0.03231
G1 X97.753 Y122.030 E0.03231
G1 X98.611 Y122.600 E0.03231
G1 X97.715 Y123.108 E0.03231
G1 X98.498 Y123.778 E0.03231
G1 X97.546 Y124.174 E0.03231
G1 X98.242 Y124.934 E0.03231
G1 X97.249 Y125.211 E0.03231
G1 X97.846 Y126.050 E0.03231
G1 X96.827 Y126.204 E0.03231
G1 X97.318 Y127.110 E0.03231
G1 X96.998 Y127.119 E0.01005
G1 X96.470 Y126.758 E0.02004
G1 X95.522 Y127.947 E0.04765
G1 X92.990 Y146.692 E0.59308
G1 X91.202 Y147.048 E0.05715
G1 X89.547 Y148.154 E0.06242
G1 X88.441 Y149.809 E0.06242
G1 X88.053 Y151.762 E0.06242
G1 X88.441 Y153.714 E0.06242
G1 X89.547 Y155.370 E0.06242
G1 X91.178 Y156.459 E0.06149
G1 X91.653 Y156.591 E0.01547
G1 X91.520 Y157.575 E0.03113
G1 X81.858 Y157.575 E0.30295
G1 X81.858 Y127.368 E0.94711
G1 X81.296 Y126.664 E0.02824
G1 X80.324 Y124.187 E0.08342
G1 X80.092 Y122.795 E0.04426
G1 X79.224 Y122.262 E0.03193
G1 X80.102 Y121.722 E0.03231
G1 X79.297 Y121.080 E0.03231
G1 X80.234 Y120.652 E0.03231
G1 X79.512 Y119.916 E0.03231
G1 X80.495 Y119.605 E0.03231
G1 X79.868 Y118.787 E0.03231
G1 X80.881 Y118.598 E0.03231
G1 X80.359 Y117.709 E0.03231
G1 X81.388 Y117.645 E0.03231
G1 X80.978 Y116.700 E0.03231
G1 X82.006 Y116.762 E0.03231
G1 X81.715 Y115.773 E0.03231
G1 X82.728 Y115.960 E0.03231
G1 X82.559 Y114.944 E0.03231
G1 X83.542 Y115.252 E0.03231
G1 X83.499 Y114.223 E0.03231
G1 X84.437 Y114.649 E0.03231
G1 X84.519 Y113.622 E0.03231
G1 X85.347 Y114.128 E0.03042
G1 X85.136 Y113.558 F10800.000
G1 F1200.000
G1 X85.358 Y112.473 E0.03471
G1 X86.225 Y113.161 E0.03471
G1 X86.577 Y112.112 E0.03471
G1 X87.354 Y112.900 E0.03471
G1 X87.832 Y111.902 E0.03471
G1 X88.507 Y112.779 E0.03471
G1 X89.103 Y111.846 E0.03471
G1 X89.665 Y112.800 E0.03471
G1 X90.370 Y111.946 E0.03471
G1 X90.813 Y112.961 E0.03471
G1 X91.617 Y112.200 E0.03471
G1 X91.932 Y113.261 E0.03471
G1 X92.823 Y112.603 E0.03471
G1 X93.007 Y113.695 E0.03471
G1 X93.971 Y113.151 E0.03471
G1 X94.020 Y114.257 E0.03471
G1 X95.044 Y113.834 E0.03471
G1 X94.958 Y114.938 E0.03471
G1 X96.025 Y114.643 E0.03471
G1 X95.805 Y115.728 E0.03471
G1 X96.900 Y115.566 E0.03471
G1 X96.550 Y116.616 E0.03471
G1 X97.657 Y116.588 E0.03471
G1 X97.182 Y117.588 E0.03471
G1 X98.283 Y117.695 E0.03471
G1 X97.690 Y118.629 E0.03471
G1 X98.770 Y118.870 E0.03471
G1 X98.067 Y119.725 E0.03471
G1 X99.110 Y120.096 E0.03471
G1 X98.308 Y120.859 E0.03471
G1 X99.298 Y121.354 E0.03471
G1 X98.409 Y122.013 E0.03471
G1 X99.331 Y122.625 E0.03471
G1 X98.368 Y123.171 E0.03471
G1 X99.209 Y123.891 E0.03471
G1 X98.187 Y124.316 E0.03471
G1 X98.934 Y125.133 E0.03471
G1 X97.868 Y125.430 E0.03471
G1 X98.509 Y126.332 E0.03471
G1 X97.415 Y126.497 E0.03471
G1 X97.942 Y127.470 E0.03471
G1 X96.886 Y127.499 E0.03312
G1 X96.546 Y127.267 E0.01290
G1 X95.882 Y128.100 E0.03341
G1 X93.321 Y147.061 E0.59990
G1 X93.127 Y147.049 E0.00608
G1 X91.350 Y147.403 E0.05682
G1 X89.819 Y148.425 E0.05772
G1 X88.796 Y149.956 E0.05772
G1 X88.437 Y151.762 E0.05772
G1 X88.796 Y153.567 E0.05772
G1 X89.819 Y155.098 E0.05772
G1 X91.337 Y156.112 E0.05723
G1 X92.071 Y156.315 E0.02388
G1 X91.850 Y157.952 E0.05178
G1 X81.481 Y157.952 E0.32511
G1 X81.481 Y127.500 E0.95480
G1 X80.966 Y126.854 E0.02589
G1 X79.959 Y124.288 E0.08644
G1 X79.748 Y123.026 E0.04011
G1 X78.504 Y122.262 E0.04579
G1 X79.447 Y121.682 E0.03471
G1 X78.582 Y120.992 E0.03471
G1 X79.588 Y120.532 E0.03471
G1 X78.813 Y119.742 E0.03471
G1 X79.869 Y119.408 E0.03471
G1 X79.196 Y118.529 E0.03471
G1 X80.284 Y118.326 E0.03471
G1 X79.723 Y117.371 E0.03471
G1 X80.828 Y117.302 E0.03471
G1 X80.388 Y116.287 E0.03471
G1 X81.493 Y116.353 E0.03471
G1 X81.180 Y115.291 E0.03471
G1 X82.268 Y115.492 E0.03471
G1 X82.087 Y114.400 E0.03471
G1 X83.143 Y114.732 E0.03471
G1 X83.096 Y113.626 E0.03471
G1 X84.104 Y114.084 E0.03471
G1 X84.192 Y112.980 E0.03471
G1 X85.085 Y113.526 E0.03283
G1 X85.536 Y113.549 F10800.000
G1 F8640.000
G1 X85.358 Y112.473 E-0.25122
G1 X86.225 Y113.161 E-0.25559
G1 X86.574 Y112.122 E-0.25319
G1 E-0.04000 F2100.00000
G1 Z0.800 F10800.000
G1 X91.615 Y113.914
G1 Z0.200
G1 E0.80000 F2100.00000
G1 F1200.000
G1 X91.202 Y113.501 E0.01836
G1 X90.928 Y113.761 E0.01190
G1 X97.696 Y120.530 E0.30109
G1 X97.422 Y120.790 E0.01190
G1 X90.028 Y113.397 E0.32891
G1 X89.786 Y113.689 E0.01195
G1 X97.765 Y121.669 E0.35495
G1 X97.458 Y121.897 E0.01203
G1 X88.920 Y113.358 E0.37981
G1 X88.711 Y113.685 E0.01218
G1 X97.776 Y122.749 E0.40320
G1 X97.434 Y122.943 E0.01234
G1 X87.861 Y113.370 E0.42584
G1 X87.688 Y113.731 E0.01262
G1 X97.743 Y123.786 E0.44726
G1 X97.365 Y123.943 E0.01287
G1 X86.836 Y113.414 E0.46835
G1 X86.702 Y113.815 E0.01329
G1 X97.683 Y124.796 E0.48849
G1 X97.265 Y124.913 E0.01366
G1 X86.567 Y114.215 E0.47586
G1 X86.551 Y114.262 E0.00157
G1 X85.789 Y113.658 E0.03060
G1 X85.736 Y113.919 E0.00839
G1 X96.846 Y125.029 E0.49423
G1 X96.785 Y125.046 E0.00200
G1 X97.349 Y125.839 E0.03060
G1 X97.151 Y125.869 E0.00630
G1 X85.645 Y114.363 E0.51183
G1 X85.594 Y114.611 E0.00796
G1 X84.986 Y114.239 E0.02241
G1 X89.916 Y119.169 E0.21927
G1 X89.248 Y119.036 E0.02142
G1 X84.731 Y114.519 E0.20093
G1 X84.691 Y115.014 E0.01563
G1 X88.693 Y119.016 E0.17802
G1 X88.247 Y119.105 E0.01431
G1 X83.801 Y114.671 E0.19751
G1 X83.824 Y115.217 E0.01719
G1 X87.801 Y119.194 E0.17690
G1 X87.661 Y119.221 E0.00447
G1 X87.441 Y119.369 E0.00835
G1 X83.657 Y115.585 E0.16832
G1 X82.914 Y115.351 E0.02450
G1 X82.919 Y115.382 E0.00097
G1 X87.120 Y119.583 E0.18689
G1 X86.799 Y119.797 E0.01213
G1 X83.025 Y116.023 E0.16788
G1 X83.073 Y116.311 E0.00918
G1 X82.712 Y116.245 E0.01156
G1 X86.517 Y120.050 E0.16926
G1 X86.303 Y120.370 E0.01213
G1 X82.137 Y116.205 E0.18530
G1 X82.361 Y116.964 E0.02488
G1 X86.088 Y120.691 E0.16581
G1 X85.878 Y121.016 E0.01217
G1 X81.901 Y117.039 E0.17690
G1 X81.420 Y117.010 E0.01514
G1 X81.484 Y117.157 E0.00504
G1 X85.789 Y121.462 E0.19149
G1 X85.700 Y121.908 E0.01431
G1 X81.701 Y117.909 E0.17788
G1 X81.198 Y117.941 E0.01587
G1 X85.657 Y122.400 E0.19838
G1 X85.790 Y123.068 E0.02142
G1 X81.051 Y118.329 E0.21081
G1 X81.329 Y118.802 E0.01726
G1 X81.043 Y118.855 E0.00916
G1 X94.629 Y132.442 E0.60438
G1 X94.693 Y131.971 E0.01496
G1 X88.114 Y125.392 E0.29264
G1 X88.782 Y125.525 E0.02142
G1 X94.757 Y131.499 E0.26577
G1 X94.820 Y131.028 E0.01496
G1 X89.274 Y125.482 E0.24671
G1 X89.721 Y125.393 E0.01431
G1 X94.884 Y130.557 E0.22969
G1 X94.948 Y130.086 E0.01496
G1 X90.167 Y125.305 E0.21267
G1 X90.491 Y125.094 E0.01217
G1 X95.011 Y129.614 E0.20107
G1 X95.075 Y129.143 E0.01496
G1 X90.812 Y124.880 E0.18964
G1 X91.133 Y124.665 E0.01213
G1 X95.139 Y128.672 E0.17821
M73 Q0 S124
G1 X95.202 Y128.200 E0.01496
G1 X91.385 Y124.383 E0.16981
M73 P0 R124
G1 X91.599 Y124.062 E0.01213
G1 X95.304 Y127.767 E0.16479
G1 X95.541 Y127.469 E0.01197
G1 X91.814 Y123.742 E0.16581
G1 X91.961 Y123.521 E0.00835
G1 X91.989 Y123.382 E0.00447
G1 X95.779 Y127.171 E0.16858
G1 X96.016 Y126.874 E0.01197
G1 X92.078 Y122.935 E0.17519
G1 X92.166 Y122.489 E0.01431
G1 X96.253 Y126.576 E0.18180
G1 X96.412 Y126.377 E0.00802
G1 X96.709 Y126.580 E0.01132
G1 X96.612 Y126.400 E0.00642
G1 X92.147 Y121.935 E0.19865
G1 X92.014 Y121.267 E0.02142
G1 X96.835 Y126.088 E0.21448
G1 F8640.000
G1 X94.508 Y123.761 E-0.76000
G1 E-0.04000 F2100.00000
G1 Z0.800 F10800.000
G1 X94.717 Y133.064
G1 Z0.200
G1 E0.80000 F2100.00000
G1 F1200.000
G1 X80.592 Y118.939 E0.62832
G1 X80.373 Y118.980 E0.00701
G1 X80.964 Y119.753 E0.03060
G1 X80.893 Y119.775 E0.00235
G1 X94.502 Y133.385 E0.60538
G1 X94.439 Y133.856 E0.01496
G1 X80.487 Y119.904 E0.62063
G1 X80.080 Y120.033 E0.01341
G1 X94.375 Y134.327 E0.63587
G1 X94.311 Y134.799 E0.01496
G1 X80.399 Y120.887 E0.61884
G1 X80.032 Y121.055 E0.01270
G1 X94.248 Y135.270 E0.63234
G1 X94.184 Y135.741 E0.01496
G1 X80.347 Y121.904 E0.61553
G1 X80.015 Y122.108 E0.01223
G1 X94.120 Y136.213 E0.62743
G1 X94.057 Y136.684 E0.01496
G1 X80.421 Y123.048 E0.60655
G1 X80.528 Y123.690 E0.02047
G1 X93.993 Y137.155 E0.59895
G1 X93.929 Y137.627 E0.01496
G1 X80.717 Y124.415 E0.58770
G1 X81.063 Y125.295 E0.02975
G1 X93.866 Y138.098 E0.56950
G1 X93.802 Y138.569 E0.01496
G1 X81.409 Y126.176 E0.55129
G1 X81.544 Y126.521 E0.01165
G1 X82.141 Y127.269 E0.03010
G1 X82.141 Y127.443 E0.00547
G1 X93.738 Y139.040 E0.51590
G1 X93.675 Y139.512 E0.01496
G1 X82.141 Y127.978 E0.51307
G1 X82.141 Y128.513 E0.01683
G1 X93.611 Y139.983 E0.51023
G1 X93.547 Y140.454 E0.01496
G1 X82.141 Y129.048 E0.50740
G1 X82.141 Y129.583 E0.01683
G1 X93.484 Y140.926 E0.50457
G1 X93.420 Y141.397 E0.01496
G1 X82.141 Y130.118 E0.50174
G1 X82.141 Y130.653 E0.01683
G1 X93.356 Y141.868 E0.49891
G1 X93.293 Y142.340 E0.01496
G1 X82.141 Y131.188 E0.49608
G1 X82.141 Y131.723 E0.01683
G1 X93.229 Y142.811 E0.49324
G1 X93.165 Y143.282 E0.01496
G1 X82.141 Y132.258 E0.49041
G1 X82.141 Y132.793 E0.01683
G1 X93.102 Y143.754 E0.48758
G1 X93.038 Y144.225 E0.01496
G1 X82.141 Y133.328 E0.48475
G1 X82.141 Y133.863 E0.01683
G1 X92.974 Y144.696 E0.48192
G1 X92.911 Y145.167 E0.01496
G1 X82.141 Y134.397 E0.47908
G1 X82.141 Y134.932 E0.01683
G1 X92.847 Y145.639 E0.47625
G1 X92.783 Y146.110 E0.01496
G1 X82.141 Y135.467 E0.47342
G1 X82.141 Y136.002 E0.01683
G1 X92.616 Y146.478 E0.46599
G1 X92.170 Y146.567 E0.01431
G1 X82.141 Y136.537 E0.44614
G1 X82.141 Y137.072 E0.01683
G1 X91.724 Y146.655 E0.42629
G1 X91.278 Y146.744 E0.01431
G1 X82.141 Y137.607 E0.40644
G1 X82.141 Y138.142 E0.01683
G1 X90.905 Y146.906 E0.38985
G1 X90.584 Y147.121 E0.01213
G1 X82.141 Y138.677 E0.37559
G1 X82.141 Y139.212 E0.01683
G1 X90.263 Y147.335 E0.36132
G1 X89.943 Y147.549 E0.01213
G1 X82.141 Y139.747 E0.34706
G1 X82.141 Y140.282 E0.01683
G1 X89.622 Y147.763 E0.33279
G1 X89.343 Y147.950 E0.01054
G1 X89.315 Y147.992 E0.00159
G1 X82.141 Y140.817 E0.31914
G1 X82.141 Y141.352 E0.01683
G1 X89.101 Y148.312 E0.30961
G1 X88.887 Y148.633 E0.01213
G1 X82.141 Y141.887 E0.30008
G1 X82.141 Y142.422 E0.01683
G1 X88.672 Y148.954 E0.29055
G1 X88.458 Y149.274 E0.01213
G1 X82.141 Y142.957 E0.28102
G1 X82.141 Y143.492 E0.01683
G1 X88.244 Y149.595 E0.27149
G1 X88.175 Y149.699 E0.00392
G1 X88.114 Y150.001 E0.00969
G1 X82.141 Y144.027 E0.26574
G1 X82.141 Y144.562 E0.01683
G1 X88.026 Y150.447 E0.26179
G1 X87.937 Y150.893 E0.01431
G1 X82.141 Y145.097 E0.25784
G1 X82.141 Y145.632 E0.01683
G1 X87.848 Y151.339 E0.25389
G1 X87.764 Y151.762 E0.01354
G1 X87.771 Y151.798 E0.00116
G1 X82.141 Y146.167 E0.25047
G1 X82.141 Y146.702 E0.01683
G1 X87.904 Y152.465 E0.25638
G1 X88.037 Y153.133 E0.02142
G1 X82.141 Y147.237 E0.26229
G1 X82.141 Y147.772 E0.01683
G1 X88.752 Y154.383 E0.29408
G1 F8640.000
G1 X86.424 Y152.055 E-0.76000
G1 E-0.04000 F2100.00000
G1 Z0.800 F10800.000
G1 X90.534 Y156.165
G1 Z0.200
G1 E0.80000 F2100.00000
G1 F1200.000
G1 X91.470 Y157.101 E0.04164
G1 X91.295 Y157.461 F10800.000
G1 F1200.000
G1 X82.141 Y148.307 E0.40723
G1 X82.141 Y148.842 E0.01683
G1 X90.591 Y157.292 E0.37588
G1 X90.056 Y157.292 E0.01683
G1 X82.141 Y149.377 E0.35208
G1 X82.141 Y149.912 E0.01683
G1 X89.521 Y157.292 E0.32829
G1 X88.986 Y157.292 E0.01683
G1 X82.141 Y150.447 E0.30449
G1 X82.141 Y150.982 E0.01683
G1 X88.451 Y157.292 E0.28069
G1 X87.916 Y157.292 E0.01683
G1 X82.141 Y151.517 E0.25690
G1 X82.141 Y152.052 E0.01683
G1 X87.381 Y157.292 E0.23310
G1 X86.846 Y157.292 E0.01683
G1 X82.141 Y152.587 E0.20930
G1 X82.141 Y153.122 E0.01683
G1 X86.311 Y157.292 E0.18550
